_includes/icons/color-apple.svg

<svg fill="#666" height="50" viewBox="0 0 48 48" width="50" xmlns="http://www.w3.org/2000/svg"><path d="m27 5s-3 3.1-3 9" fill="#fff"/><path d="m25 14h-2c0-6.3 3.2-9.6 3.3-9.7l1.4 1.4-.7-.7.7.7s-2.7 2.9-2.7 8.3z" fill="#795548"/><path d="m24 14s-1.3-12.5-14-8c1.4 13 14 8 14 8z" fill="#4caf50"/><path d="m6.3 25.9c-1.9-10 5.6-20.1 17.7-11.9 12.1-8.2 19.6 1.8 17.7 11.9-1.8 10.1-12.1 19.6-17.7 12.8-5.6 6.8-15.9-2.7-17.7-12.8z" fill="#d32f2f"/><path d="m32.4 13c-2.2 0-4.6.9-7.3 2.7l-1.1.8v19.2l1.5 1.8c.9 1 1.8 1.5 3 1.5 4 0 9.9-6 11.2-13.4.7-3.8-.1-7.7-2.1-10.1-1.3-1.6-3.1-2.5-5.2-2.5z" fill="#fff3e0"/><path d="m31.5 26.2c0 1.1-.9 2-2 2s-2-.9-2-2 2-3.4 2-3.4 2 2.3 2 3.4z" fill="#5d4037"/><path d="m24 14c-12.1-8.2-19.6 1.9-17.7 11.9 1.8 10.1 12.1 19.6 17.7 12.8z" fill="#f44336"/></svg>

<svg xmlns="http://www.w3.org/2000/svg" viewBox="0 0 48 48" width="50" height="50" fill="#666"><path d="M27,5c0,0-3,3.1-3,9" fill="#fff"/><path d="M25,14h-2c0-6.3,3.2-9.6,3.3-9.7l1.4,1.4L27,5l0.7,0.7C27.7,5.7,25,8.6,25,14z" fill="#795548"/><path d="M24,14c0,0-1.3-12.5-14-8C11.4,19,24,14,24,14z" fill="#4caf50"/><path d="M6.3,25.9C4.4,15.9,11.9,5.8,24,14c12.1-8.2,19.6,1.8,17.7,11.9C39.9,36,29.6,45.5,24,38.7 C18.4,45.5,8.1,36,6.3,25.9z" fill="#d32f2f"/><path d="M32.4,13c-2.2,0-4.6,0.9-7.3,2.7L24,16.5v19.2l1.5,1.8c0.9,1,1.8,1.5,3,1.5c4,0,9.9-6,11.2-13.4 c0.7-3.8-0.1-7.7-2.1-10.1C36.3,13.9,34.5,13,32.4,13z" fill="#fff3e0"/><path d="M31.5,26.2c0,1.1-0.9,2-2,2s-2-0.9-2-2s2-3.4,2-3.4S31.5,25.1,31.5,26.2z" fill="#5d4037"/><path d="M24,14C11.9,5.8,4.4,15.9,6.3,25.9C8.1,36,18.4,45.5,24,38.7V14z" fill="#f44336"/></svg>
